icons/home.svg

<?xml version="1.0" encoding="UTF-8"?>
<svg   viewBox="0 0 24 24" version="1.1" xmlns="http://www.w3.org/2000/svg" xmlns:xlink="http://www.w3.org/1999/xlink">
    <g id="🔍-System-Icons" stroke="none" stroke-width="1" fill="none" fill-rule="evenodd">
        <g id="ic_fluent_home_24_regular" fill="#f8f8f2" fill-rule="nonzero">
            <path d="M13.4505,2.53209 L20.2005,8.2242 C20.7074,8.65171 21,9.28109 21,9.94425 L21,19.747 C21,20.7135 20.2165,21.497 19.25,21.497 L15.75,21.497 C14.7835,21.497 14,20.7135 14,19.747 L14,14.247 C14,14.109 13.8881,13.997 13.75,13.997 L10.25,13.997 C10.1119,13.997 10,14.109 10,14.247 L10,19.747 C10,20.7135 9.2165,21.497 8.25,21.497 L4.75,21.497 C3.7835,21.497 3,20.7135 3,19.747 L3,9.94425 C3,9.28109 3.29255,8.65171 3.79952,8.2242 L10.5495,2.53209 C11.3874,1.8255 12.6126,1.8255 13.4505,2.53209 Z M11.5165,3.67879 L4.76651,9.3709 C4.59752,9.5134 4.5,9.7232 4.5,9.94425 L4.5,19.747 C4.5,19.8851 4.61193,19.997 4.75,19.997 L8.25,19.997 C8.38807,19.997 8.5,19.8851 8.5,19.747 L8.5,14.247 C8.5,13.2805 9.2835,12.497 10.25,12.497 L13.75,12.497 C14.7165,12.497 15.5,13.2805 15.5,14.247 L15.5,19.747 C15.5,19.8851 15.6119,19.997 15.75,19.997 L19.25,19.997 C19.3881,19.997 19.5,19.8851 19.5,19.747 L19.5,9.94425 C19.5,9.7232 19.4025,9.5134 19.2335,9.3709 L12.4835,3.67879 C12.2042,3.44326 11.7958,3.44326 11.5165,3.67879 Z" id="🎨-Color"></path>
        </g>
    </g>
</svg>

<svg width="24" height="24" fill="none" viewBox="0 0 24 24" xmlns="http://www.w3.org/2000/svg"><path d="M10.55 2.532a2.25 2.25 0 0 1 2.9 0l6.75 5.692c.507.428.8 1.057.8 1.72v9.803a1.75 1.75 0 0 1-1.75 1.75h-3.5a1.75 1.75 0 0 1-1.75-1.75v-5.5a.25.25 0 0 0-.25-.25h-3.5a.25.25 0 0 0-.25.25v5.5a1.75 1.75 0 0 1-1.75 1.75h-3.5A1.75 1.75 0 0 1 3 19.747V9.944c0-.663.293-1.292.8-1.72l6.75-5.692Zm1.933 1.147a.75.75 0 0 0-.966 0L4.767 9.37a.75.75 0 0 0-.267.573v9.803c0 .138.112.25.25.25h3.5a.25.25 0 0 0 .25-.25v-5.5c0-.967.784-1.75 1.75-1.75h3.5c.966 0 1.75.783 1.75 1.75v5.5c0 .138.112.25.25.25h3.5a.25.25 0 0 0 .25-.25V9.944a.75.75 0 0 0-.267-.573l-6.75-5.692Z" fill="#f8f8f2"/></svg>
